X: 17
T: JIGS: Kesh Set
T: Kesh / Kerrigan's
C: C: Trad.; S: Various
C: Set Leaders: Andrey, Vova, Olya, Tania, Oleg, Oliushka, André
Z: Oleg Naumov arr.; Sean Comiskey / Zara at The Session
N: https://thesession.org/members/26966/sets/96718
R: Jig
M: 6/8
L: 1/8
Q: 3/8=116
K: Gmaj
|:"G"~G3 GAB|"D"~A3 ABd|"C"edd "G"gdd|"C"edB "D"dBA|
"G"~G3 GAB|"D"~A3 ABd|"C"edd "G"gdB|1 "D"AGF "G"G2D:|2 "D"AGF "G"G2A||
|:"G"~B3 dBd|"C"ege "G"dBG|"G"~B3 dBG|"D"ABA AGA|
"G"BAB dBd|"C"ege "G"dBd|"C"~g3 "D"aga|"G"bgf g3:||
T: Morrison's / Maurice Carmody's Favourite / Stick Across the Hob
K: Edor
|:"Em"E3 B3|"Em"EBE "D"AFD|"Em"EDE B2 c|"G"dcB "D"AFD|
"Em"E3 B3|"Em"EBE "D"AFD|"G"GFG FGA|"D"dAG FED:||
"Em"Bee fee|"Em"aee fed|"Em"Bee fee|"C"a2g "D"fed|
"Em"Bee fee|"Em"aee fef|"G"gfe d2A|"D"BAG FGA|
"Em"Bee fee|"Em"aee fed|"Em"Bee fee|"D"faf def|
"G"g3 gfe|"D"def "G"g2d|"Am"edc "Bm"d2A|"C"BAG "D"FED||

